frontend/static/logos/crownd-logo-full.svg

<?xml version="1.0" encoding="UTF-8"?>
<svg width="287px" height="192px" viewBox="0 0 287 192" version="1.1" xmlns="http://www.w3.org/2000/svg" xmlns:xlink="http://www.w3.org/1999/xlink">
    <g id="Page-1" stroke="none" stroke-width="1" fill="none" fill-rule="evenodd">
        <g id="Group-3.2" fill="#000000">
            <path d="M122.72,0 L133.36,10.5062 L144,0 L154.64,10.5062 L165.28,0 L179.144,13.6901 L162.8,29.829 L167.072,33.218 L167.167,33.314 C173.199,39.386 179.112,49.06 179.112,58.717 C179.112,77.865 163.392,93.387 144,93.387 C124.608,93.387 108.888,77.865 108.888,58.717 C108.888,50.122 111.744,42.531 116.991,36.494 L112.371,32.133 C106.056,39.273 102.504,48.37 102.504,58.717 C102.504,81.346 121.082,99.691 144,99.691 C166.918,99.691 185.496,81.346 185.496,58.717 C185.496,47.66 180.682,37.934 173.337,30.494 L171.782,28.919 L182.986,17.621 L184.615,19.225 C194.986,29.429 201,43.163 201,58.717 C201,89.801 175.48,115 144,115 C112.52,115 87,89.801 87,58.717 C87,43.118 93.808,28.646 104.145,18.474 L107.364,21.664 C97.817,31.058 91.56,44.407 91.56,58.717 C91.56,87.314 115.038,110.497 144,110.497 C172.962,110.497 196.44,87.314 196.44,58.717 C196.44,45.183 191.524,33.222 182.99,24.053 L178.124,28.959 C185.313,36.891 190.056,47.102 190.056,58.717 C190.056,83.833 169.436,104.194 144,104.194 C118.564,104.194 97.944,83.833 97.944,58.717 C97.944,46.4 102.528,35.565 110.637,27.351 L112.214,25.754 L123.425,36.34 L121.808,37.968 C116.428,43.383 113.448,50.45 113.448,58.717 C113.448,75.378 127.126,88.884 144,88.884 C160.873,88.884 174.552,75.378 174.552,58.717 C174.552,50.739 169.555,42.186 164.005,36.561 L155.98,30.195 L172.696,13.6901 L165.28,6.3677 L154.64,16.874 L144,6.3677 L133.36,16.874 L122.72,6.3677 L115.304,13.6901 L130.222,28.42 L126.998,31.604 L108.856,13.6901 L122.72,0 Z" id="Shape"></path>
            <path d="M21.3098,148.1 C24.9898,148.1 28.2698,148.8 31.1498,150.2 C34.0698,151.56 36.4298,153.5 38.2298,156.02 C40.0698,158.54 41.2898,161.48 41.8898,164.84 L27.8498,164.84 C27.2098,163.44 26.2898,162.36 25.0898,161.6 C23.9298,160.8 22.5898,160.4 21.0698,160.4 C18.8298,160.4 17.0498,161.24 15.7298,162.92 C14.4498,164.6 13.8098,166.86 13.8098,169.7 C13.8098,172.54 14.4498,174.8 15.7298,176.48 C17.0498,178.16 18.8298,179 21.0698,179 C22.5898,179 23.9298,178.62 25.0898,177.86 C26.2898,177.06 27.2098,175.96 27.8498,174.56 L41.8898,174.56 C41.2898,177.92 40.0698,180.86 38.2298,183.38 C36.4298,185.9 34.0698,187.86 31.1498,189.26 C28.2698,190.62 24.9898,191.3 21.3098,191.3 C17.0298,191.3 13.3098,190.4 10.1498,188.6 C6.9898,186.76 4.5498,184.2 2.8298,180.92 C1.1498,177.64 0.3098,173.9 0.3098,169.7 C0.3098,165.5 1.1498,161.76 2.8298,158.48 C4.5498,155.2 6.9898,152.66 10.1498,150.86 C13.3098,149.02 17.0298,148.1 21.3098,148.1 Z M68.046,191 L60.006,175.76 L60.006,191 L46.686,191 L46.686,148.52 L66.486,148.52 C69.926,148.52 72.866,149.14 75.306,150.38 C77.746,151.58 79.566,153.24 80.766,155.36 C82.006,157.44 82.626,159.8 82.626,162.44 C82.626,165.28 81.826,167.8 80.226,170 C78.666,172.2 76.406,173.78 73.446,174.74 L82.686,191 L68.046,191 Z M60.006,166.88 L65.286,166.88 C66.566,166.88 67.526,166.6 68.166,166.04 C68.806,165.44 69.126,164.52 69.126,163.28 C69.126,162.16 68.786,161.28 68.106,160.64 C67.466,160 66.526,159.68 65.286,159.68 L60.006,159.68 L60.006,166.88 Z M107.581,147.8 C111.581,147.8 115.241,148.74 118.561,150.62 C121.881,152.46 124.501,155.04 126.421,158.36 C128.381,161.68 129.361,165.42 129.361,169.58 C129.361,173.74 128.381,177.48 126.421,180.8 C124.501,184.12 121.861,186.72 118.501,188.6 C115.181,190.48 111.541,191.42 107.581,191.42 C103.581,191.42 99.901,190.48 96.541,188.6 C93.221,186.72 90.581,184.12 88.621,180.8 C86.661,177.48 85.681,173.74 85.681,169.58 C85.681,165.42 86.661,161.68 88.621,158.36 C90.581,155.04 93.221,152.46 96.541,150.62 C99.901,148.74 103.581,147.8 107.581,147.8 Z M107.581,160.1 C104.901,160.1 102.841,160.96 101.401,162.68 C99.961,164.36 99.241,166.66 99.241,169.58 C99.241,172.46 99.961,174.76 101.401,176.48 C102.841,178.16 104.901,179 107.581,179 C110.221,179 112.261,178.16 113.701,176.48 C115.141,174.76 115.861,172.46 115.861,169.58 C115.861,166.66 115.141,164.36 113.701,162.68 C112.261,160.96 110.221,160.1 107.581,160.1 Z M195.366,148.52 L185.646,191 L169.086,191 L164.166,166.88 L159.246,191 L142.686,191 L132.966,148.52 L147.306,148.52 L151.146,175.28 L156.906,148.52 L171.426,148.52 L177.186,175.28 L181.026,148.52 L195.366,148.52 Z M240.883,191 L227.563,191 L213.463,169.64 L213.463,191 L200.143,191 L200.143,148.52 L213.463,148.52 L227.563,170.24 L227.563,148.52 L240.883,148.52 L240.883,191 Z M286.68,169.64 C286.68,173.68 285.78,177.32 283.98,180.56 C282.18,183.8 279.6,186.36 276.24,188.24 C272.92,190.08 269.04,191 264.6,191 L246.9,191 L246.9,148.52 L264.6,148.52 C269.04,148.52 272.92,149.42 276.24,151.22 C279.6,153.02 282.18,155.52 283.98,158.72 C285.78,161.92 286.68,165.56 286.68,169.64 Z M263.4,179.12 C266.4,179.12 268.78,178.3 270.54,176.66 C272.3,175.02 273.18,172.68 273.18,169.64 C273.18,166.6 272.3,164.26 270.54,162.62 C268.78,160.98 266.4,160.16 263.4,160.16 L260.22,160.16 L260.22,179.12 L263.4,179.12 Z" id="Shape" fill-rule="nonzero"></path>
        </g>
    </g>
</svg>

<svg width="287" height="192" xmlns="http://www.w3.org/2000/svg"><g fill="#000" fill-rule="evenodd"><path d="M122.72 0l10.64 10.506L144 0l10.64 10.506L165.28 0l13.864 13.69L162.8 29.83l4.272 3.389.095.096c6.032 6.072 11.945 15.746 11.945 25.403 0 19.148-15.72 34.67-35.112 34.67-19.392 0-35.112-15.522-35.112-34.67 0-8.595 2.856-16.186 8.103-22.223l-4.62-4.361c-6.315 7.14-9.867 16.237-9.867 26.584 0 22.629 18.578 40.974 41.496 40.974 22.918 0 41.496-18.345 41.496-40.974 0-11.057-4.814-20.783-12.159-28.223l-1.555-1.575 11.204-11.298 1.629 1.604C194.986 29.429 201 43.163 201 58.717 201 89.801 175.48 115 144 115S87 89.801 87 58.717c0-15.599 6.808-30.071 17.145-40.243l3.219 3.19C97.817 31.058 91.56 44.407 91.56 58.717c0 28.597 23.478 51.78 52.44 51.78 28.962 0 52.44-23.183 52.44-51.78 0-13.534-4.916-25.495-13.45-34.664l-4.866 4.906c7.189 7.932 11.932 18.143 11.932 29.758 0 25.116-20.62 45.477-46.056 45.477-25.436 0-46.056-20.361-46.056-45.477 0-12.317 4.584-23.152 12.693-31.366l1.577-1.597 11.211 10.586-1.617 1.628c-5.38 5.415-8.36 12.482-8.36 20.749 0 16.661 13.678 30.167 30.552 30.167 16.873 0 30.552-13.506 30.552-30.167 0-7.978-4.997-16.531-10.547-22.156l-8.025-6.366 16.716-16.505-7.416-7.322-10.64 10.506L144 6.368l-10.64 10.506-10.64-10.506-7.416 7.322 14.918 14.73-3.224 3.184-18.142-17.914L122.72 0z"/><path d="M21.31 148.1c3.68 0 6.96.7 9.84 2.1 2.92 1.36 5.28 3.3 7.08 5.82 1.84 2.52 3.06 5.46 3.66 8.82H27.85c-.64-1.4-1.56-2.48-2.76-3.24-1.16-.8-2.5-1.2-4.02-1.2-2.24 0-4.02.84-5.34 2.52-1.28 1.68-1.92 3.94-1.92 6.78 0 2.84.64 5.1 1.92 6.78 1.32 1.68 3.1 2.52 5.34 2.52 1.52 0 2.86-.38 4.02-1.14 1.2-.8 2.12-1.9 2.76-3.3h14.04c-.6 3.36-1.82 6.3-3.66 8.82-1.8 2.52-4.16 4.48-7.08 5.88-2.88 1.36-6.16 2.04-9.84 2.04-4.28 0-8-.9-11.16-2.7-3.16-1.84-5.6-4.4-7.32-7.68C1.15 177.64.31 173.9.31 169.7c0-4.2.84-7.94 2.52-11.22 1.72-3.28 4.16-5.82 7.32-7.62 3.16-1.84 6.88-2.76 11.16-2.76zM68.046 191l-8.04-15.24V191h-13.32v-42.48h19.8c3.44 0 6.38.62 8.82 1.86 2.44 1.2 4.26 2.86 5.46 4.98 1.24 2.08 1.86 4.44 1.86 7.08 0 2.84-.8 5.36-2.4 7.56-1.56 2.2-3.82 3.78-6.78 4.74l9.24 16.26h-14.64zm-8.04-24.12h5.28c1.28 0 2.24-.28 2.88-.84.64-.6.96-1.52.96-2.76 0-1.12-.34-2-1.02-2.64-.64-.64-1.58-.96-2.82-.96h-5.28v7.2zm47.575-19.08c4 0 7.66.94 10.98 2.82 3.32 1.84 5.94 4.42 7.86 7.74 1.96 3.32 2.94 7.06 2.94 11.22 0 4.16-.98 7.9-2.94 11.22-1.92 3.32-4.56 5.92-7.92 7.8-3.32 1.88-6.96 2.82-10.92 2.82-4 0-7.68-.94-11.04-2.82-3.32-1.88-5.96-4.48-7.92-7.8-1.96-3.32-2.94-7.06-2.94-11.22 0-4.16.98-7.9 2.94-11.22 1.96-3.32 4.6-5.9 7.92-7.74 3.36-1.88 7.04-2.82 11.04-2.82zm0 12.3c-2.68 0-4.74.86-6.18 2.58-1.44 1.68-2.16 3.98-2.16 6.9 0 2.88.72 5.18 2.16 6.9 1.44 1.68 3.5 2.52 6.18 2.52 2.64 0 4.68-.84 6.12-2.52 1.44-1.72 2.16-4.02 2.16-6.9 0-2.92-.72-5.22-2.16-6.9-1.44-1.72-3.48-2.58-6.12-2.58zm87.785-11.58l-9.72 42.48h-16.56l-4.92-24.12-4.92 24.12h-16.56l-9.72-42.48h14.34l3.84 26.76 5.76-26.76h14.52l5.76 26.76 3.84-26.76h14.34zM240.883 191h-13.32l-14.1-21.36V191h-13.32v-42.48h13.32l14.1 21.72v-21.72h13.32V191zm45.797-21.36c0 4.04-.9 7.68-2.7 10.92-1.8 3.24-4.38 5.8-7.74 7.68-3.32 1.84-7.2 2.76-11.64 2.76h-17.7v-42.48h17.7c4.44 0 8.32.9 11.64 2.7 3.36 1.8 5.94 4.3 7.74 7.5 1.8 3.2 2.7 6.84 2.7 10.92zm-23.28 9.48c3 0 5.38-.82 7.14-2.46 1.76-1.64 2.64-3.98 2.64-7.02 0-3.04-.88-5.38-2.64-7.02-1.76-1.64-4.14-2.46-7.14-2.46h-3.18v18.96h3.18z" fill-rule="nonzero"/></g></svg>
